X: 091
T: Lord Palmerston's Favourite
B: John Pringle "Collection of Reels Strathspeys & Jigs", 1801 p.9#1
Z: 2011 John Chambers <jc:trillian.mit.edu>
Q: "Slowish"
R: jig
M: 6/8
L: 1/8
K: A
V: 1
c/d/ |\
{cd}e3 cAE | (F/G/A)F E2E | ECE ECE | {cd}~d2c Bcd |\
e3 cAE | FGA EBd | cec dBG | {G}AAA A2 :|
E |\
A3 cAe | f2f ~fga | efe {f}edc | BeA {A}GFE |\
A3 cAe | f2f ~fga | cfa {a}gf^e | fga efg |
{g}a2e | efe | eac' {f}e2d | cea (f/e/)(d/c/)(B/A/) | BeA {A}GFE |\
A3 cAe | f2g {b}agf | edc BeG | {G}AAA A2 |]
V: 2 clef=bass middle=d
z |\
Ace Ace | dfa cea | Ace Ace | GBe Eed |\
cea cea | dfa egb | Ace EBe | Ace A2 :|
z |\
Ace Ace | dfa dfa | Ace ABc | GBe EBe |\
Ace cea | dfa dfa | fac' cgc' | f2z z3 |
Ace Ace | A3 Ace | Ace ABc | GBe EBe |\
Ace cea | dfa dfa | cea egb | aec A2 |]

%%sep 2 1 500

